src/ios-world.svg

<?xml version="1.0" encoding="utf-8"?>
<!-- Generated by IcoMoon.io -->
<!DOCTYPE svg PUBLIC "-//W3C//DTD SVG 1.1//EN" "http://www.w3.org/Graphics/SVG/1.1/DTD/svg11.dtd">
<svg version="1.1" xmlns="http://www.w3.org/2000/svg" xmlns:xlink="http://www.w3.org/1999/xlink" width="512" height="512" viewBox="0 0 512 512">
<path fill="#000000" d="M256 48c-0.1 0-0.1 0-0.2 0 0 0 0 0-0.1 0s-0.2 0-0.2 0c-114.7 0.3-207.5 93.3-207.5 208s92.8 207.7 207.5 208c0.1 0 0.2 0 0.2 0s0.1 0 0.1 0 0.1 0 0.2 0c114.9 0 208-93.1 208-208s-93.1-208-208-208zM256 447.4c-0.1 0-0.1 0-0.2 0 0 0 0 0-0.1 0s-0.2 0-0.2 0c-105.4-0.3-190.9-85.9-190.9-191.4s85.4-191.1 190.9-191.3c0.1 0 0.1 0 0.2 0 0 0 0.1 0 0.1 0 0.1 0 0.1 0 0.2 0 105.7 0 191.4 85.7 191.4 191.4 0 105.6-85.7 191.3-191.4 191.3z"></path>
<path fill="#000000" d="M322.3 171.8c-18.7 4.5-38 7.2-57.9 7.8v68.1h67.6c-0.6-28.1-4.1-53.6-9.7-75.9z"></path>
<path fill="#000000" d="M264.3 82.5v81.9c18.5-0.6 36.5-3 53.8-7.2-13.1-41.4-33.5-68.6-53.8-74.7z"></path>
<path fill="#000000" d="M193.4 157.1c17.5 4.2 35.6 6.7 54.2 7.3v-82.1c-20.3 5.9-41 33.1-54.2 74.8z"></path>
<path fill="#000000" d="M380.6 133.4c-22.6-23-51.5-39.8-83.9-47.5 14.8 15.3 27.2 38.7 36.1 67.3 16.7-5.1 32.7-11.7 47.8-19.8z"></path>
<path fill="#000000" d="M347.3 247.7h83.3c-1.8-38.8-16.3-74.4-39.5-102.6-17.1 9.4-35.2 17.1-54.1 22.8 6.1 24 9.7 51.1 10.3 79.8z"></path>
<path fill="#000000" d="M179.5 247.7h68.2v-68.1c-20.1-0.6-39.6-3.3-58.4-7.9-5.7 22.3-9.2 47.9-9.8 76z"></path>
<path fill="#000000" d="M332 264.3h-67.7v68c19.9 0.6 39.3 3.2 58 7.8 5.6-22.2 9.1-47.8 9.7-75.8z"></path>
<path fill="#000000" d="M189.3 340.2c18.8-4.6 38.3-7.3 58.4-7.9v-68h-68.2c0.6 28.1 4.1 53.7 9.8 75.9z"></path>
<path fill="#000000" d="M247.7 429.6v-82.1c-18.6 0.6-36.8 3.1-54.3 7.3 13.2 41.7 33.9 69 54.3 74.8z"></path>
<path fill="#000000" d="M296.7 426.1c32.4-7.8 61.3-24.5 84-47.6-15.1-8.1-31.1-14.7-47.8-19.8-8.9 28.7-21.4 52-36.2 67.4z"></path>
<path fill="#000000" d="M214.7 86.1c-32.1 7.8-60.8 24.5-83.3 47.4 15 8 30.8 14.6 47.3 19.6 8.9-28.5 21.3-51.7 36-67z"></path>
<path fill="#000000" d="M337 344.1c19 5.7 37.1 13.4 54.2 22.8 23.2-28.2 37.7-63.8 39.5-102.6h-83.3c-0.7 28.7-4.3 55.7-10.4 79.8z"></path>
<path fill="#000000" d="M264.3 347.5v82c20.3-6.1 40.7-33.3 53.8-74.8-17.3-4.2-35.3-6.6-53.8-7.2z"></path>
<path fill="#000000" d="M174.6 167.8c-18.8-5.7-36.8-13.3-53.7-22.7-23.2 28.2-37.7 63.8-39.5 102.6h82.9c0.5-28.8 4.2-55.9 10.3-79.9z"></path>
<path fill="#000000" d="M164.2 264.3h-82.9c1.8 38.8 16.3 74.4 39.5 102.6 16.9-9.3 34.9-17 53.7-22.7-6-24-9.7-51.1-10.3-79.9z"></path>
<path fill="#000000" d="M131.3 378.5c22.5 22.9 51.2 39.6 83.4 47.4-14.7-15.3-27.1-38.6-36-67.1-16.5 5.1-32.4 11.7-47.4 19.7z"></path>
</svg>

<?xml version="1.0" encoding="utf-8"?>
<!-- Generator: Adobe Illustrator 16.2.1, SVG Export Plug-In . SVG Version: 6.00 Build 0)  -->
<!DOCTYPE svg PUBLIC "-//W3C//DTD SVG 1.1//EN" "http://www.w3.org/Graphics/SVG/1.1/DTD/svg11.dtd">
<svg version="1.1" id="Layer_1" xmlns="http://www.w3.org/2000/svg" xmlns:xlink="http://www.w3.org/1999/xlink" x="0px" y="0px"
	 width="512px" height="512px" viewBox="0 0 512 512" style="enable-background:new 0 0 512 512;" xml:space="preserve">
<g>
	<path d="M256,48c-0.1,0-0.1,0-0.2,0c0,0,0,0-0.1,0c-0.1,0-0.2,0-0.2,0C140.8,48.3,48,141.3,48,256c0,114.7,92.8,207.7,207.5,208
		c0.1,0,0.2,0,0.2,0c0,0,0.1,0,0.1,0c0.1,0,0.1,0,0.2,0c114.9,0,208-93.1,208-208C464,141.1,370.9,48,256,48z M256,447.4
		c-0.1,0-0.1,0-0.2,0c0,0,0,0-0.1,0c-0.1,0-0.2,0-0.2,0C150.1,447.1,64.6,361.5,64.6,256c0-105.5,85.4-191.1,190.9-191.3
		c0.1,0,0.1,0,0.2,0c0,0,0.1,0,0.1,0c0.1,0,0.1,0,0.2,0c105.7,0,191.4,85.7,191.4,191.4C447.4,361.7,361.7,447.4,256,447.4z"/>
	<path d="M322.3,171.8c-18.7,4.5-38,7.2-57.9,7.8v68.1H332C331.4,219.6,327.9,194.1,322.3,171.8z"/>
	<path d="M264.3,82.5v81.9c18.5-0.6,36.5-3,53.8-7.2C305,115.8,284.6,88.6,264.3,82.5z"/>
	<path d="M193.4,157.1c17.5,4.2,35.6,6.7,54.2,7.3V82.3C227.3,88.2,206.6,115.4,193.4,157.1z"/>
	<path d="M380.6,133.4c-22.6-23-51.5-39.8-83.9-47.5c14.8,15.3,27.2,38.7,36.1,67.3C349.5,148.1,365.5,141.5,380.6,133.4z"/>
	<path d="M347.3,247.7h83.3c-1.8-38.8-16.3-74.4-39.5-102.6c-17.1,9.4-35.2,17.1-54.1,22.8C343.1,191.9,346.7,219,347.3,247.7z"/>
	<path d="M179.5,247.7h68.2v-68.1c-20.1-0.6-39.6-3.3-58.4-7.9C183.6,194,180.1,219.6,179.5,247.7z"/>
	<path d="M332,264.3h-67.7v68c19.9,0.6,39.3,3.2,58,7.8C327.9,317.9,331.4,292.3,332,264.3z"/>
	<path d="M189.3,340.2c18.8-4.6,38.3-7.3,58.4-7.9v-68h-68.2C180.1,292.4,183.6,318,189.3,340.2z"/>
	<path d="M247.7,429.6v-82.1c-18.6,0.6-36.8,3.1-54.3,7.3C206.6,396.5,227.3,423.8,247.7,429.6z"/>
	<path d="M296.7,426.1c32.4-7.8,61.3-24.5,84-47.6c-15.1-8.1-31.1-14.7-47.8-19.8C324,387.4,311.5,410.7,296.7,426.1z"/>
	<path d="M214.7,86.1c-32.1,7.8-60.8,24.5-83.3,47.4c15,8,30.8,14.6,47.3,19.6C187.6,124.6,200,101.4,214.7,86.1z"/>
	<path d="M337,344.1c19,5.7,37.1,13.4,54.2,22.8c23.2-28.2,37.7-63.8,39.5-102.6h-83.3C346.7,293,343.1,320,337,344.1z"/>
	<path d="M264.3,347.5v82c20.3-6.1,40.7-33.3,53.8-74.8C300.8,350.5,282.8,348.1,264.3,347.5z"/>
	<path d="M174.6,167.8c-18.8-5.7-36.8-13.3-53.7-22.7c-23.2,28.2-37.7,63.8-39.5,102.6h82.9C164.8,218.9,168.5,191.8,174.6,167.8z"
		/>
	<path d="M164.2,264.3H81.3c1.8,38.8,16.3,74.4,39.5,102.6c16.9-9.3,34.9-17,53.7-22.7C168.5,320.2,164.8,293.1,164.2,264.3z"/>
	<path d="M131.3,378.5c22.5,22.9,51.2,39.6,83.4,47.4c-14.7-15.3-27.1-38.6-36-67.1C162.2,363.9,146.3,370.5,131.3,378.5z"/>
</g>
</svg>
